X: 27532
T: Monaghan Scutcher, The
R: jig
M: 6/8
K: Gmajor
|:GBd cBA|GFE D2c|Bdg fed|efg a2a|
bag fed|edc BAG|DFA cBA|1 GBd gdB:|2 GBd g3||
|:FAc BAG|Bdg fed|efg dBG|A2G FED|
FAc BAG|Bdg fed|efg dBG|1 cAF G2G:|2 cAF G3||

